resources/icons/20px/layer-outline.svg

<?xml version="1.0" encoding="UTF-8"?>
<svg width="20px" height="20px" viewBox="0 0 20 20" version="1.1" xmlns="http://www.w3.org/2000/svg" xmlns:xlink="http://www.w3.org/1999/xlink">
    <path fill-rule="evenodd" d="M9.51435707,4.12584272 L0.514357069,9.12584272 C-0.171452356,9.50684796 -0.171452356,10.493152 0.514357069,10.8741573 L9.51435707,15.8741573 C9.81637961,16.0419476 10.1836204,16.0419476 10.4856429,15.8741573 L19.4856429,10.8741573 C20.1714524,10.493152 20.1714524,9.50684796 19.4856429,9.12584272 L10.4856429,4.12584272 C10.1836204,3.95805243 9.81637961,3.95805243 9.51435707,4.12584272 Z M10,6.144 L16.94,9.999 L10,13.855 L3.059,9.999 L10,6.144 Z"></path>
</svg>

<svg xmlns="http://www.w3.org/2000/svg" viewBox="0 0 20 20">
  <path d="m9.514 4.126-9 5a1 1 0 0 0 0 1.748l9 5a1 1 0 0 0 .972 0l9-5a1 1 0 0 0 0-1.748l-9-5a1 1 0 0 0-.972 0M10 6.144l6.94 3.855L10 13.855 3.059 9.999z"/>
</svg>
